icons/calendar-date-14.svg

<svg
  xmlns="http://www.w3.org/2000/svg"
  viewBox="0 0 500 500"
  width="500"
  height="500"
  fill="#ffffff"
>
  <path d="M382.5 47.2h-16.7V5h-24.4v42.2H158.6V5h-24.4v42.2h-16.7a91.5 91.5 0 0 0-91.4 91.4v265a91.5 91.5 0 0 0 91.4 91.4h265a91.5 91.5 0 0 0 91.4-91.4v-265a91.5 91.5 0 0 0-91.4-91.4zm67 356.4a67.1 67.1 0 0 1-67 67h-265a67.1 67.1 0 0 1-67-67v-265c0-2.2.1-4.3.3-6.4h398.4c.2 2.1.3 4.2.3 6.4z" />
  <polygon
    data-name="1"
    points="113.9 215.7 119.3 236.9 155 217.6 155.7 217.6 155.7 397.3 182.6 397.3 182.6 191.6 158.8 191.6 113.9 215.7"
  />
  <path
    data-name="4"
    d="M369.8 191.6h-30L248 322.9v18.4h95.6v56h26.2v-56h28.8v-21.9h-28.8zm-26.2 59.2v68.6h-67.4v-.6l50.3-69.9c5.7-9.5 10.8-18.4 17.1-30.4h.9c-.6 10.8-.9 21.5-.9 32.3z"
  />
</svg>

<svg xmlns="http://www.w3.org/2000/svg" viewBox="0 0 500 500">
  <g id="calendar-date-14">
    <path id="outline" d="M382.5,47.2H365.8V5H341.4V47.2H158.6V5H134.2V47.2H117.5a91.5,91.5,0,0,0-91.4,91.4v265A91.5,91.5,0,0,0,117.5,495h265a91.5,91.5,0,0,0,91.4-91.4v-265A91.5,91.5,0,0,0,382.5,47.2Zm67,356.4a67.1,67.1,0,0,1-67,67h-265a67.1,67.1,0,0,1-67-67v-265c0-2.2.1-4.3.3-6.4H449.2c.2,2.1.3,4.2.3,6.4Z"/>
    <polygon id="_1" data-name="1" points="113.9 215.7 119.3 236.9 155 217.6 155.7 217.6 155.7 397.3 182.6 397.3 182.6 191.6 158.8 191.6 113.9 215.7"/>
    <path id="_4" data-name="4" d="M369.8,191.6h-30L248,322.9v18.4h95.6v56h26.2v-56h28.8V319.4H369.8Zm-26.2,59.2v68.6H276.2v-.6l50.3-69.9c5.7-9.5,10.8-18.4,17.1-30.4h.9C343.9,229.3,343.6,240,343.6,250.8Z"/>
  </g>
</svg>
